X: 151
T: Miss Browers Strathspey
C: by D.Mackenzie
%O: 1795
%R: strathspey, reel
Z: 2018 John Chambers <jc:trillian.mit.edu>
B: Wm. Campbell "10th Book of New and Favorite Country Dances, Strathspey Reels" 1795 p.15
F: https://archive.org/details/campbellstenthbo00camp
M: C
L: 1/8
K: C
% - - - - - - - - - - - - - - - - - - - - - - - - -
% Voice 1 arranged for small-scale proofreading
V: 1 staves=2
g |\
(e/f/).g/.e/ cg e>gc>g | e/f/g/e/ cg fd-df |\
e/f/g/e/ cg f>de>c | A<d (c/B/).A/.G/ Acc :|\
G |\
EGcG AcGE | TF<dE>c Dd-df |
EGcG AcGE | F>dE>c Cc-cG |\
EGcG AcGE | F<dE>c Dd-df |\
ecge fdec | A<d (c/B/).A/.G/ Acc |]
% - - - - - - - - - - - - - - - - - - - - - - - - -
% Voice 1 preserves the original staff layout
V: 2 clef=bass middle=d
z |\
c2e2 c2e2 | c'gec G2g2 | c2e2 c2e2 | f2g2 c2c :|
z |\
c2e2 f2e2 | d2c2 g2G2 | c2e2 f2e2 | d2c2 c2c2 |
c2e2 f2e2 | d2c2 G2g2 | cegc' abc'e |  f2g2 c2c |]
% - - - - - - - - - - - - - - - - - - - - - - - - -
%%begintext align
%% Cast off 2 Cu up again to the top
%% hand 4 half round back again
%% Lead down the middle up again
%% and Allemande
%%endtext
% - - - - - - - - - - - - - - - - - - - - - - - - -

%%sep 1 1 500
%%sep 1 1 500

